packages/icons/src/SVG/edit-solid.svg

<svg width="12" height="12" viewBox="0 0 12 12" fill="none" xmlns="http://www.w3.org/2000/svg">
<path d="M8.15882 0.293869C8.55064 -0.0979565 9.18592 -0.0979562 9.57774 0.293869L11.7061 2.42226C12.098 2.81408 12.098 3.44936 11.7061 3.84118L10.2872 5.26011L6.73989 1.71279L8.15882 0.293869Z" fill="#4C505B"/>
<path d="M1.77366 6.67903L5.99537 2.45733L6.23389 2.69585L9.57775 5.96956L5.32097 10.2263L0 12L1.77366 6.67903Z" fill="#4C505B"/>
</svg>

<!-- Generated by IcoMoon.io -->
<svg version="1.1" xmlns="http://www.w3.org/2000/svg" width="12" height="12" viewBox="0 0 12 12">
<title>edit-solid</title>
<path d="M8.159 0.294c0.392-0.392 1.027-0.392 1.419 0l2.128 2.128c0.392 0.392 0.392 1.027 0 1.419l-1.419 1.419-3.547-3.547 1.419-1.419z"></path>
<path d="M1.774 6.679l4.222-4.222 0.239 0.239 3.344 3.274-4.257 4.257-5.321 1.774 1.774-5.321z"></path>
</svg>
